X:1
T: Chestnut Farewell
N:
C:Gary Roodman
S:
A:
O:
R:
M:4/4
K:C
I:speed 196
%W: A
% voice 1 (1 lines, 29 notes)
K:C
M:4/4
L:1/16
e2 d2 c4 e4 g4 |d4 _B4 f8 |c6 d2 e4 c4 |d4 B4 A4 G4 |f8 a4 f4 |e8 g2 f2 e4 |d6 e2 f4 c4 |B12 d4 |
%W:
% voice 1 (1 lines, 28 notes)
f8 d4 c4 |B4 d4 f8 |e4 g4 e4 d4 |^c8 d4 e4 |f8 e4 d4 |e4 c4 G8 |B8 B2 c2 d4 |c8 B2 ^G2 E2 G2 |
%W: B
% voice 1 (1 lines, 26 notes)
A4 e4 c2 d2 e4 |B8 ^G8 |A4 F4 A2 B2 c4 |G8 E4 G4 |A8 F4 A4 |G8 E8 |D4 E4 F4 G4 |A8 B8 |
%W:
% voice 1 (1 lines, 29 notes)
c4 d4 e4 c4 |d4 B4 G8 |A4 B4 c2 B2 A4 |B4 G4 E8 |F4 A4 F2 G2 A4 |G4 F4 E4 G4 |F4 G4 A4 B4 |c16 ||
